X:113
T:Reel 113
M:4/4
K:Dmaj
L:1/8
AG|F>D (3DDD FDAD|F>D (3DDD d2cd|eEEE GFED|E>E (3EEE BEGE|F>D (3DDD FDAG|F>D (3DDD d2cd|ecdB ABAG|FDEC D2|FG|Addc d2cd|ecef edcd|Addc d2cd|eE (3EEE B2AG|Addc d2cd|edef g2fg| (3agf  (3gfe fdec|AGBG FEAc|
